X:12018
T:no name yet 1
M:6/8
L:1/8
C:Stephen P. McNally
K:Em
|:E>EE G>AB|d>Be d>BG|F>FF d>Fe|F>dA F>ED|
E>EE G>AB|d>Be d>BG|F>Bd {A}B2d|1 {A}B>AG E>EE:|2{A}B2d {A}B>ef|!
|g>gg e>AG|F>Ae g>fe|f>Ad g>Ad|f>Ag f>ed|
g>gg e>AG|F>Ae g>fe|f>ga b>_ba|g>af e>ee|
g>gg e>AG|F>Ae g>fe|f>Ad g>Ad|a>da b>ag|
b>_ba g>gg|e>fg f>Ad|f>Ag b>_ba|g>af e>ee
